components/ui-node-icon/src/transpose/transpose.medium.svg

<svg width="24" height="24" viewBox="0 0 24 24" fill="none" xmlns="http://www.w3.org/2000/svg">
  <path fill-rule="evenodd" clip-rule="evenodd" d="M21 3H18V8H21C22.1046 8 23 7.10457 23 6V5C23 3.89543 22.1046 3 21 3ZM8 21V18H3V21C3 22.1046 3.89543 23 5 23H6C7.10457 23 8 22.1046 8 21Z" fill="var(--tbl--colors--icons--transformation--tertiary)"/>
  <path fill-rule="evenodd" clip-rule="evenodd" d="M13 3H18V8H13V3ZM8 13V8H13V11C13 12.1046 12.1046 13 11 13H8ZM8 13V18H3V13H8Z" fill="var(--tbl--colors--icons--transformation--secondary)"/>
  <path  opacity="0.5" fill-rule="evenodd" clip-rule="evenodd" d="M3 13L3 8L8 8L8 3L13 3L13 8L8 8L8 13L3 13Z" fill="var(--tbl--colors--icons--transformation--primary)"/>
  <path fill-rule="evenodd" clip-rule="evenodd" d="M3 5C3 3.89543 3.89543 3 5 3H8V8H3V5ZM17.0758 13.3827C16.921 13.009 17.0066 12.5789 17.2926 12.2929L19.2926 10.2929C19.6831 9.90237 20.3163 9.90237 20.7068 10.2929L22.7068 12.2929C22.9928 12.5789 23.0784 13.009 22.9236 13.3827C22.7688 13.7564 22.4042 14 21.9997 14H20.786C20.4878 15.3063 19.8819 16.3959 18.9976 17.2282C17.7042 18.4455 15.9345 19 13.9998 19V20C13.9998 20.4045 13.7561 20.7691 13.3824 20.9239C13.0088 21.0787 12.5786 20.9931 12.2926 20.7071L10.2926 18.7071C9.90212 18.3166 9.90212 17.6834 10.2926 17.2929L12.2926 15.2929C12.5786 15.0069 13.0088 14.9213 13.3824 15.0761C13.7561 15.2309 13.9998 15.5955 13.9998 16V17C15.5651 17 16.7953 16.5545 17.6269 15.7718C18.0943 15.3319 18.4743 14.7493 18.715 14H17.9997C17.5952 14 17.2306 13.7564 17.0758 13.3827Z" fill="var(--tbl--colors--icons--transformation--primary)"/>
</svg>

<svg xmlns="http://www.w3.org/2000/svg" width="24" height="24" fill="none" viewBox="0 0 24 24">
  <path fill="var(--tbl--colors--icons--transformation--tertiary)" fill-rule="evenodd" d="M21 3h-3v5h3a2 2 0 0 0 2-2V5a2 2 0 0 0-2-2ZM8 21v-3H3v3a2 2 0 0 0 2 2h1a2 2 0 0 0 2-2Z" clip-rule="evenodd"/>
  <path fill="var(--tbl--colors--icons--transformation--secondary)" fill-rule="evenodd" d="M13 3h5v5h-5V3ZM8 13V8h5v3a2 2 0 0 1-2 2H8Zm0 0v5H3v-5h5Z" clip-rule="evenodd"/>
  <path fill="var(--tbl--colors--icons--transformation--primary)" fill-rule="evenodd" d="M3 13V8h5V3h5v5H8v5H3Z" clip-rule="evenodd" opacity=".5"/>
  <path fill="var(--tbl--colors--icons--transformation--primary)" fill-rule="evenodd" d="M3 5a2 2 0 0 1 2-2h3v5H3V5Zm14.076 8.383a1 1 0 0 1 .217-1.09l2-2a1 1 0 0 1 1.414 0l2 2A1 1 0 0 1 22 14h-1.214c-.298 1.306-.904 2.396-1.788 3.228C17.704 18.445 15.934 19 14 19v1a1 1 0 0 1-1.707.707l-2-2a1 1 0 0 1 0-1.414l2-2A1 1 0 0 1 14 16v1c1.565 0 2.795-.445 3.627-1.228.467-.44.847-1.023 1.088-1.772H18a1 1 0 0 1-.924-.617Z" clip-rule="evenodd"/>
</svg>
